services/frontend/src/assets/icons/cards.svg

<svg xmlns="http://www.w3.org/2000/svg" fill="none" viewBox="0 0 24 24"><path stroke="#000" stroke-linecap="round" stroke-width="1.5" d="M5 10.5V5h5.5v5.5H5Zm8.5 0V5H19v5.5h-5.5Zm-8.5 3h5.5V19H5v-5.5Zm8.5 5.5v-5.5H19V19h-5.5Z"/></svg>

<svg width="24" height="24" viewBox="0 0 24 24" fill="none" xmlns="http://www.w3.org/2000/svg">
<path d="M5 10.5V5H10.5V10.5H5Z" stroke="current" stroke-width="1.5" stroke-linecap="round"/>
<path d="M13.5 10.5V5H19V10.5H13.5Z" stroke="current" stroke-width="1.5" stroke-linecap="round"/>
<path d="M5 13.5H10.5V19H5V13.5Z" stroke="current" stroke-width="1.5" stroke-linecap="round"/>
<path d="M13.5 19V13.5H19V19H13.5Z" stroke="current" stroke-width="1.5" stroke-linecap="round"/>
</svg>
